X: 3
T: Hallow Fain
T: Hallow Fair
M: 6/8
L: 1/8
R: jig
F: http://www.thesession.org/tunes/display/8704
B: Gillespie ms (Perth 1768)
N: published in 1775 by Neil Stewart
K: Amix
e2c d2B | c2A B2G | B/c/dB g3 | dBG Bcd |
e2c d2B | c2A B2G | B/c/dB a3 | ecA Acd :|
|: e>cA AcA | e>cA AcA | d>BG GBG | d>BG Bcd |
e>cA AcA | e>cA AcA | B/c/dB a3 | ecA Acd :|

%%sep 2 1 500

